X:1
T: The Fairy Jig
C:
R:Jig
Q:180
K:G
M:6/8
L:1/16
ge|d2B2A2 B2G2A2|G2B2d2 g4a2|b2g2e2 d2B2G2|F2A2A2 A4ge|d2B2A2 B2G2A2|G2B2d2 g2a2b2|a2g2e2 d2B2A2|B2G2G2 G4ge|
d2B2A2 B2G2A2|G2B2d2 g4a2|b2g2e2 d2B2G2|F2A2A2 A4ge|d2B2A2 B2G2A2|G2B2d2 g2a2b2|a2g2e2 d2B2A2|B2G2G2 G4d2|
e2d2d2 d2e2g2|b2a2a2 a2g2a2|b2g2e2 d2B2G2|F2A2A2 A4d2|e2d2d2 d2e2g2|b2a2a2 a2g2a2|b2g2e2 d2B2A2|B2G2G2 G4d2|
e2d2d2 d2e2g2|b2a2a2 a2g2a2|b2g2e2 d2B2G2|F2A2A2 A4d2|e2d2d2 d2e2g2|b2a2a2 a2g2a2|b2g2e2 d2B2A2|B2G2G2 G4||
